epam-assets/icon-sources/18/action-align-left.svg

<svg width="18" height="18" viewBox="0 0 18 18" fill="none" xmlns="http://www.w3.org/2000/svg">
<g id="18/action-align-left">
<path id="icon" fill-rule="evenodd" clip-rule="evenodd" d="M8.25 12V9.75H15.75V8.25H8.25V6L5.25 9L8.25 12ZM2.25 15H3.75V3H2.25V15Z" fill="#6C6F80"/>
</g>
</svg>

<svg xmlns="http://www.w3.org/2000/svg" width="18" height="18" fill="currentColor" viewBox="0 0 18 18">
  <path fill-rule="evenodd" d="M8.25 12V9.75h7.5v-1.5h-7.5V6l-3 3 3 3Zm-6 3h1.5V3h-1.5v12Z" clip-rule="evenodd"/>
</svg>
